SVG/exchange.svg

<?xml version="1.0" encoding="utf-8"?>
<!-- Generated by IcoMoon.io -->
<!DOCTYPE svg PUBLIC "-//W3C//DTD SVG 1.1//EN" "http://www.w3.org/Graphics/SVG/1.1/DTD/svg11.dtd">
<svg version="1.1" xmlns="http://www.w3.org/2000/svg" xmlns:xlink="http://www.w3.org/1999/xlink" width="14" height="14" viewBox="0 0 14 14">
<path fill="#444444" d="M14 9.25v1.5q0 0.102-0.074 0.176t-0.176 0.074h-10.75v1.5q0 0.102-0.074 0.176t-0.176 0.074q-0.094 0-0.187-0.078l-2.492-2.5q-0.070-0.070-0.070-0.172 0-0.109 0.070-0.18l2.5-2.5q0.070-0.070 0.18-0.070 0.102 0 0.176 0.074t0.074 0.176v1.5h10.75q0.102 0 0.176 0.074t0.074 0.176zM14 5q0 0.109-0.070 0.18l-2.5 2.5q-0.070 0.070-0.18 0.070-0.102 0-0.176-0.074t-0.074-0.176v-1.5h-10.75q-0.102 0-0.176-0.074t-0.074-0.176v-1.5q0-0.102 0.074-0.176t0.176-0.074h10.75v-1.5q0-0.109 0.070-0.18t0.18-0.070q0.094 0 0.187 0.078l2.492 2.492q0.070 0.070 0.070 0.18z"></path>
</svg>

<svg xmlns="http://www.w3.org/2000/svg" viewBox="0 0 14 14"><path d="M14 9.25v1.5q0 .102-.074.176T13.75 11H3v1.5q0 .102-.074.176t-.176.074q-.094 0-.187-.078l-2.492-2.5Q0 10.102 0 10q0-.11.07-.18l2.5-2.5q.07-.07.18-.07.103 0 .177.074T3 7.5V9h10.75q.103 0 .177.074T14 9.25zM14 5q0 .11-.07.18l-2.5 2.5q-.07.07-.18.07-.102 0-.176-.074T11 7.5V6H.25q-.102 0-.176-.074T0 5.75v-1.5q0-.102.074-.176T.25 4H11V2.5q0-.11.07-.18t.18-.07q.094 0 .187.078L13.93 4.82q.07.07.07.18z" /></svg>
